!! 00049] TT[KA
!! NN
!!!OTL: Pao yang yu
!!!ARE: Asia, China, Shanxi, Hequ
!! I, 324, 1)
!!!SCT: C0087
!!!YEM: Copyright 1995, estate of Helmut Schaffrath.
**kern
*ICvox
*Ivox
!! Mixed meters:  2/4; 3/4
*M2/4
*k[f#c#]
*D:
{8r
8b
8ff#
16ee
16dd
=1
8ee
4.b
=2
*M3/4
8dd
16cc#
16b
8a
16f#
16a
4b}
=3
*M2/4
{8r
8b
8ff#
16ee
16dd
=4
8ee
4.f#
=5
*M3/4
16a
16a
16a
16b
16f#
16e
8d
4e}
=6
*M2/4
{8r
8b
8ff#
16ee
16dd
=7
8ee
4.b
=8
*M3/4
8dd
16cc#
16b
8a
16f#
16a
4b}
=9
*M2/4
{4r
16ff#
16ee
16dd
16b
=10
8dd
4.f#
=11
16a
16a
16a
16b
16f#
16e
8d
=12
2e}
==
!!!AGN: Xiaodiao. Miaoxie Laodong Qingjing
!! Von Junge und Maedchen gemeinsam. Die Fuellwoerter beschreiben
!!    den Klang der o.a. Taetigkeiten.
!!    Doppelt in C0086 und C1264 und C1210
!!!ONB: ESAC (Essen Associative Code) Database: CHINA
!!!AMT: irregular
!!!AIN: vox
!!!EED: Helmut Schaffrath
!!!EEV: 1.0
*-
